!!!!SEGMENT: pl-kk--kk-i-7--058-001_palestrina-giovanni-pierluigi-da-missa-inviolata-kyrie.krn
!!!id: 16xx:894
!!!COM: Palestrina, Giovanni Pierluigi da
!!!OTL: Missa Inviolata – Kyrie
!!!PDT:
!!!SMS-siglum: PL-Kk
!!!SMS-shelfmark: Kk.I.7
!!!NIFC-rismID: 300258135
!!!URL-scan: http://repozytorium.nifc.pl/skany/pl-kk-nut--i-7
!!!ONB-nifc: UWAGA: C (skan 0056-0058, s.105-108), A (0140-0142, s.101-105), T(0217-0219, s.97-100), B(0304-0305, s.94-97). Części Mszy: 1. Kyrie, 2. Et in terra, 3. Sanctus, 4. Agnus Dei
!!!SMS-variant:
!!!SMS-altvar:
**kern	**text	**kern	**text	**kern	**text	**kern	**text
*part4	*part4	*part3	*part3	*part2	*part2	*part1	*part1
*staff4	*staff4	*staff3	*staff3	*staff2	*staff2	*staff1	*staff1
*I"BASSVS.	*	*I"TENOR.	*	*I"ALTVS.	*	*I"CANTVS.	*
*I'B	*	*I'T	*	*I'A	*	*I'C	*
*clefF4	*	*clefC4	*	*clefC3	*	*clefC1	*
*k[b-]	*	*k[b-]	*	*k[b-]	*	*k[b-]	*
*M2/1	*	*M2/1	*	*M2/1	*	*M2/1	*
*met(c|)	*	*met(c|)	*	*met(c|)	*	*met(c|)	*
=1	=1	=1	=1	=1	=1	=1	=1
!LO:TX:t=P:problem:przy kluczu BB- B-	!	!LO:TX:i:t=Miſsa Inviolata	!	!LO:TX:i:t=Miſsa\nInviolata\nPrenestini	!	!LO:TX:t=P:problem:kreska pseudotaktowa	!
!LO:TX:i:t=Miſsa Inviolata Petri Alois&colon; Prenestini	!	!	!	!	!	!LO:TX:i:t=Miſsa Inviolata	!
00r	.	1F/	Ky-	00r	.	00r	.
.	.	2F/	-ri-	.	.	.	.
.	.	2F/	-e	.	.	.	.
=2-	=2-	=2-	=2-	=2-	=2-	=2-	=2-
.	.	1G/	.	.	.	.	.
.	.	1A\	e-	.	.	.	.
=3-	=3-	=3-	=3-	=3-	=3-	=3-	=3-
!	!	!LO:TX:t=P:problem:kreska pseudotaktowa	!	!	!	!	!
!	!	!LO:TX:t=P:problem:♭ above	!	!	!	!	!
00r	.	1B-X\	.	00r	.	1f/	Ky-
.	.	2A/	.	.	.	2f/	-ri-
.	.	1B-\	.	.	.	2f/	-e
=4-	=4-	=4-	=4-	=4-	=4-	=4-	=4-
.	.	.	.	.	.	1g\	e-
.	.	4A\	.	.	.	.	.
.	.	4G/	.	.	.	.	.
!	!	!	!	!	!	!LO:TX:t=P:problem:kreska pseudotaktowa	!
.	.	2F/	.	.	.	1a\	.
!	!	!LO:TX:t=P:problem:kreska pseudotaktowa	!	!	!	!	!
.	.	2A/	.	.	.	.	.
=5-	=5-	=5-	=5-	=5-	=5-	=5-	=5-
0r	.	4G/	-lei-	00rf	.	1b-\	.
.	.	4A/	.	.	.	.	.
.	.	4B-/	.	.	.	.	.
.	.	4c/	.	.	.	.	.
*	*	*	*	*	*	*2\right	*
.	.	1d\	.	.	.	2a\	.
.	.	.	.	.	.	1b-\	.
=6-	=6-	=6-	=6-	=6-	=6-	=6-	=6-
!	!	!LO:TX:t=P:problem:rozdzielacz słów:global	!	!	!	!	!
!LO:TX:t=P:problem:kreska pseudotaktowa	!	!LO:TX:t=P:problem:2\right:global	!	!	!	!	!
1r	.	2B-,<\	-son	.	.	.	.
!	!	!LO:TX:t=P:problem:kreska pseudotaktowa	!	!	!	!	!
.	.	2c\	e-	.	.	4a\	.
.	.	.	.	.	.	4g\	.
1BB-/	Ky-	4d\	-lei-	.	.	2f/	-lei-
.	.	4c\	.	.	.	.	.
.	.	4B-\	.	.	.	1g\	.
.	.	4A\	.	.	.	.	.
=7-	=7-	=7-	=7-	=7-	=7-	=7-	=7-
2BB-/	-ri-	1B-\	.	0rg	.	.	.
2BB-/	-e	.	.	.	.	1f/	.
1C/	e-	1G/	.	.	.	.	.
.	.	.	.	.	.	2e/	.
=8-	=8-	=8-	=8-	=8-	=8-	=8-	=8-
!LO:TX:t=P:problem:kreska pseudotaktowa	!	!LO:TX:t=P:problem:kreska pseudotaktowa	!	!LO:TX:t=P:problem:kreska pseudotaktowa	!	!LO:TX:t=P:problem:kreska pseudotaktowa	!
1D\	.	1F/	.	1rg	.	1f/	-son.
1E-X\	.	2r	.	1B-/	Ky-	0r	.
.	.	2G/	.	.	.	.	.
=9-	=9-	=9-	=9-	=9-	=9-	=9-	=9-
2D\	.	2F/	.	2B-/	-ri-	.	.
!	!	!	!	!LO:TX:t=P:problem:kreska pseudotaktowa	!	!	!
1E-\	.	1G/	.	2B-/	-e	.	.
!	!	!	!	!	!	!LO:TX:t=P:problem:kreska pseudotaktowa	!
.	.	.	.	1c\	e-	1r	.
4D/	-lei-	2A/	.	.	.	.	.
!LO:TX:t=P:problem:kreska pseudotaktowa	!	!	!	!	!	!	!
4C/	.	.	.	.	.	.	.
=10-	=10-	=10-	=10-	=10-	=10-	=10-	=10-
1BB-/	.	1B-\	.	1.d\	.	1f/`	Ky-
1D\	.	2A/	.	.	.	2f/	-ri-
.	.	2F/	.	1f\	.	2f/	-e
=11-	=11-	=11-	=11-	=11-	=11-	=11-	=11-
!LO:TX:t=P:problem:kreska pseudotaktowa	!	!	!	!	!	!	!
1C/	-son	1c\	.	.	.	1g\	.
*	*	*	*	*2\right	*	*	*
.	.	.	.	2e\	-lei-	.	.
!LO:TX:t=P:problem:kreska pseudotaktowa	!	!LO:TX:t=P:problem:kreska pseudotaktowa	!	!	!	!LO:TX:t=P:problem:kreska pseudotaktowa	!
1rA	.	1F/	-son	1f\	.	1a\	.
=12-	=12-	=12-	=12-	=12-	=12-	=12-	=12-
!	!	!LO:LB:g=original	!	!LO:TX:t=P:problem:kreska pseudotaktowa	!	!	!
1G\	Ky-	2rF	.	0d\	-son	2b-\	.
.	.	2G/	Ky-	.	.	2b-\	e-
2F\	-ri-	2A/	-ri-	.	.	2a\	-lei-
1G\	-e	2G/	-e	.	.	1b-\	.
=13-	=13-	=13-	=13-	=13-	=13-	=13-	=13-
*	*	*	*	*	*ij	*	*
.	.	2B-\	e-	1G/	Ky-	.	.
4F\	.	2c\	.	.	.	4a\	.
!LO:TX:t=P:problem:kreska pseudotaktowa	!	!	!	!	!	!	!
4Eny\	.	.	.	.	.	4g\	.
1D\	.	1d\	-lei-	2A/	-ri-	1f/	.
.	.	.	.	2B-/	-e	.	.
=14-	=14-	=14-	=14-	=14-	=14-	=14-	=14-
!	!	!LO:TX:t=P:problem:kreska pseudotaktowa	!	!	!	!	!
1F\	.	1c\	-son	2A/	e-	1a\	.
.	.	.	.	2F/	-lei-	.	.
!	!	!	!	!LO:TX:t=P:problem:rozdzielacz słów:global	!	!	!
!	!	!	!	!LO:TX:t=P:problem:kreska pseudotaktowa	!	!	!
2E\	.	1r	.	0c\,<	-son	2g/	.
*	*	*	*ij	*	*Xij	*	*
1F\	.	.	.	.	.	1a\	.
=15-	=15-	=15-	=15-	=15-	=15-	=15-	=15-
.	.	1F/	Ky-	.	.	.	.
4E\	.	.	.	.	.	4g/	.
!LO:TX:t=P:problem:kreska pseudotaktowa	!	!	!	!	!	!LO:TX:t=P:problem:kreska pseudotaktowa	!
4D\	.	.	.	.	.	4f/	.
!	!	!	!	!	!	!LO:LB:g=original	!
1C/	e-	2G/	-ri-	2r	.	1e/	.
.	.	1A\	-e	1c\	Ky-	.	.
=16-	=16-	=16-	=16-	=16-	=16-	=16-	=16-
1D\	.	.	.	.	.	1f/	.
!	!	!	!	!LO:TX:t=P:problem:kreska pseudotaktowa	!	!	!
.	.	4G/	.	2B-/	ri-	.	.
.	.	4F/	.	.	.	.	.
2C/	.	2G/	.	4c/	-e	2e/	.
.	.	.	.	4B-/	.	.	.
1D\	.	2F/	.	4A/	.	1f/	.
.	.	.	.	4G/	.	.	.
=17-	=17-	=17-	=17-	=17-	=17-	=17-	=17-
.	.	2A\	e-	2F/	e-	.	.
!	!	!	!	!LO:TX:t=P:problem:kreska pseudotaktowa	!	!	!
4C/	.	1c\	.	2G/	.	4e/	.
!	!	!	!	!	!	!LO:TX:t=P:problem:kreska pseudotaktowa	!
4BB-/	.	.	.	.	.	4d/	.
*	*	*	*	*lig	*	*	*
1AA/	-lei-	.	.	1A/	-lei-	2c/	.
!	!	!LO:TX:t=P:problem:kreska pseudotaktowa	!	!	!	!	!
.	.	2c\	.	.	.	2e/	.
=18-	=18-	=18-	=18-	=18-	=18-	=18-	=18-
*lig	*	*	*	*	*	*	*
1BB-/	.	2.B-\	.	1d\	.	2g\	.
.	.	.	.	.	.	1f/	.
.	.	4A\	.	.	.	.	.
*	*	*	*	*Xlig	*	*	*
!LO:TX:t=P:problem:kreska pseudotaktowa	!	!	!	!	!	!	!
!LO:SIC:v:t=custos FF	!	!	!	!	!	!	!
1C/	.	1G/	-lei-	1c\	.	.	.
.	.	.	.	.	.	2e/	.
*Xlig	*	*	*	*	*	*	*
=19-	=19-	=19-	=19-	=19-	=19-	=19-	=19-
!LO:TX:t=P:problem:rozdzielacz słów:global	!	!LO:TX:t=P:problem:kreska pseudotaktowa	!	!LO:TX:t=P:problem:kreska pseudotaktowa	!	!LO:TX:t=P:problem:kreska pseudotaktowa	!
!LO:LB:g=original	!	!	!	!	!	!	!
2FF,</	son	1F/	-son	1A/	-son	0.f/	-son
*	*ij	*	*	*	*	*	*
2F\	Ky-	.	.	.	.	.	.
!	!	!	!	!LO:LB:g=original	!	!	!
*	*	*	*Xij	*	*ij	*	*
2D/	-ri-	2rF	.	1d\	Ky-	.	.
2BB-/	-e	2B-\	Ky-	.	.	.	.
=20-	=20-	=20-	=20-	=20-	=20-	=20-	=20-
2F\	e-	2A\	-r-	2c\	-ri-	.	.
2BB-/	-lei-	1B-\	-e	1d\	-e	.	.
!LO:TX:t=P:problem:kreska pseudotaktowa	!	!	!	!	!	!	!
1BB-/	-son	.	.	.	.	1rdd	.
*	*Xij	*	*	*	*	*	*
.	.	4A\	.	4c/	.	.	.
!	!	!	!	!LO:TX:t=P:problem:kreska pseudotaktowa	!	!	!
.	.	4G\	.	4B-/	.	.	.
=21-	=21-	=21-	=21-	=21-	=21-	=21-	=21-
2r	.	1F/	.	2.A/	e-	1a\	Ky-
2F\	Ky-	.	.	.	.	.	.
.	.	.	.	4B-/	.	.	.
2E\	-ri-	2G/	e-	1c\	-lei-	2g\	-ri-
1F\	-e	2F/	-lei-	.	.	1a\	-e
=22-	=22-	=22-	=22-	=22-	=22-	=22-	=22-
!	!	!LO:TX:t=P:problem:kreska pseudotaktowa	!	!LO:TX:t=P:problem:kreska pseudotaktowa	!	!	!
.	.	1c\	-son	1F/,<	-son	.	.
*	*	*	*ij	*	*Xij	*	*
4E\	.	.	.	.	.	4g/	.
!LO:TX:t=P:problem:kreska pseudotaktowa	!	!	!	!	!	!	!
4D\	.	.	.	.	.	4f/	.
1C/	.	2r	.	2G/	Ky-	1e/	e-
.	.	1c\	Ky-	1A/	-ri-	.	.
=23-	=23-	=23-	=23-	=23-	=23-	=23-	=23-
!	!	!	!	!	!	!LO:TX:t=P:problem:kreska pseudotaktowa	!
1D\	.	.	.	.	.	1f/	.
.	.	2B-\	-ri-	4G/	-e	.	.
.	.	.	.	4F/	.	.	.
2C/	.	4c\	-e	2G/	.	2e/	.
.	.	4B-\	.	.	.	.	.
1D\	e-	4A\	.	4F/	.	1f/	.
!	!	!	!	!LO:TX:t=P:problem:kreska pseudotaktowa	!	!	!
.	.	4G\	.	4G/	.	.	.
=24-	=24-	=24-	=24-	=24-	=24-	=24-	=24-
.	.	2F/	.	4A/	e-	.	.
.	.	.	.	4B-/	.	.	.
4C/	.	2G/	.	1c\	.	4e/	.
!LO:TX:t=P:problem:kreska pseudotaktowa	!	!	!	!	!	!	!
4BB-/	.	.	.	.	.	4d/	.
1AA/	-lei-	2A\	e-	.	.	2c/	.
!	!	!	!	!LO:TX:t=P:problem:kreska pseudotaktowa	!	!LO:TX:t=P:problem:kreska pseudotaktowa	!
.	.	2c\	.	2A/	.	2e/	.
=25-	=25-	=25-	=25-	=25-	=25-	=25-	=25-
*lig	*	*	*	*	*	*	*
1BB-/	.	2.B-\	.	1d\	-lei-	2g\	.
.	.	.	.	.	.	1f/	-lei-
.	.	4A\	.	.	.	.	.
1C/	.	1G/	-lei-	1c\	.	.	.
.	.	.	.	.	.	2e/	.
!	!	!	!	!	!	!LO:TX:t=P:problem:kreska pseudotaktowa	!
*Xlig	*	*	*	*	*	*	*
=26-	=26-	=26-	=26-	=26-	=26-	=26-	=26-
0FF/;	-son.	0F/;	-son	0c\;	-son	0f/;	-son.
=27||	=27||	=27||	=27||	=27||	=27||	=27||	=27||
*M2/1	*	*M2/1	*Xij	*M2/1	*	*M2/1	*
*met(c|)	*	*met(c|)	*	*met(c|)	*	*met(c|)	*
!LO:TX:t=P:problem:przy kluczu B- BB-	!	!	!	!	!	!	!
!	!	!	!	!LO:TX:t=P:problem:oznaczenie menzuralne C|	!	!LO:TX:t=P:problem:kreska pseudotaktowa	!
00r	.	00r	.	0B-/	Chri-	00r	.
=28-	=28-	=28-	=28-	=28-	=28-	=28-	=28-
.	.	.	.	1d\	-ste	.	.
.	.	.	.	1e-X\	.	.	.
=29-	=29-	=29-	=29-	=29-	=29-	=29-	=29-
!LO:TX:t=P:problem:kreska pseudotaktowa	!	!	!	!	!	!	!
00r	.	00r	.	2.d\	.	0f/	Chri-
!	!	!	!	!LO:TX:t=P:problem:kreska pseudotaktowa	!	!	!
.	.	.	.	4c/	.	.	.
.	.	.	.	4d\	.	.	.
.	.	.	.	4e-y\	.	.	.
.	.	.	.	2.f\	.	.	.
=30-	=30-	=30-	=30-	=30-	=30-	=30-	=30-
.	.	.	.	.	.	1a\	-ste
.	.	.	.	4e-\	.	.	.
.	.	.	.	1d\	.	.	.
.	.	.	.	.	.	1b-\	.
.	.	.	.	4c/	.	.	.
!	!	!	!	!LO:TX:t=P:problem:kreska pseudotaktowa	!	!	!
.	.	.	.	4B-/	.	.	.
=31-	=31-	=31-	=31-	=31-	=31-	=31-	=31-
*	*	*	*	*lig	*	*	*
!	!	!LO:TX:t=P:problem:kreska pseudotaktowa	!	!LO:LB:g=original	!	!	!
0F\	Chri-	00rf	.	1c\	e-	2.a\	.
!	!	!	!	!	!	!LO:TX:t=P:problem:kreska pseudotaktowa	!
.	.	.	.	.	.	4g/	.
.	.	.	.	1A/	.	4a\	e-
.	.	.	.	.	.	4b-\	.
.	.	.	.	.	.	2.cc\	.
*	*	*	*	*Xlig	*	*	*
=32-	=32-	=32-	=32-	=32-	=32-	=32-	=32-
*	*	*	*	*lig	*	*	*
1A\	-ste	.	.	1c\	-lei-	.	.
.	.	.	.	.	.	4b-\	-lei-
.	.	.	.	.	.	1a\	.
!LO:TX:t=P:problem:kreska pseudotaktowa	!	!	!	!	!	!	!
1B-\	.	.	.	1d\	.	.	.
.	.	.	.	.	.	2g\	.
*	*	*	*	*Xlig	*	*	*
=33-	=33-	=33-	=33-	=33-	=33-	=33-	=33-
!	!	!	!	!	!	!LO:TX:t=P:problem:kreska pseudotaktowa	!
2.A\	.	0F/	Chri-	1c\	.	1a\	-son,
4G\	.	.	.	.	.	.	.
!	!	!	!	!LO:TX:t=P:problem:kreska pseudotaktowa	!	!	!
4F\	.	.	.	1A/	son	2re	.
4E\	.	.	.	.	.	.	.
*	*	*	*	*	*	*	*ij
1D\	.	.	.	.	.	1f/	Chri-
=34-	=34-	=34-	=34-	=34-	=34-	=34-	=34-
!	!	!	!	!LO:TX:t=P:problem:kreska pseudotaktowa	!	!	!
.	.	1A\	-ste	0r	.	.	.
2C/	.	.	.	.	.	2e/	-ste
!LO:TX:t=P:problem:kreska pseudotaktowa	!	!LO:TX:t=P:problem:kreska pseudotaktowa	!	!	!	!	!
1BB-/	e-	1B-\	.	.	.	4d/	e-
.	.	.	.	.	.	4e/	.
.	.	.	.	.	.	4f/	.
.	.	.	.	.	.	4g/	.
=35-	=35-	=35-	=35-	=35-	=35-	=35-	=35-
1.F\	.	2.A/	.	0c\	Chri-	1.a\	.
.	.	4G/	.	.	.	.	.
.	.	4A\	.	.	.	.	.
.	.	4B-\	.	.	.	.	.
4E\	.	2.c\	.	.	.	2g\	-lei-
!LO:TX:t=P:problem:kreska pseudotaktowa	!	!	!	!	!	!	!
4D\	.	.	.	.	.	.	.
=36-	=36-	=36-	=36-	=36-	=36-	=36-	=36-
!LO:LB:g=original	!	!	!	!	!	!LO:TX:t=P:problem:kreska pseudotaktowa	!
2C/	lei-	.	.	1e\	-ste	1g\	-son,
*	*	*	*	*	*	*	*Xij
.	.	4B-\	.	.	.	.	.
2E\	.	2G/	.	.	.	.	.
!	!	!	!	!LO:TX:t=P:problem:kreska pseudotaktowa	!	!	!
1D\	.	2A\	e-	1f\	.	1rdd	.
!	!	!LO:TX:t=P:problem:kreska pseudotaktowa	!	!	!	!	!
.	.	2B-\	.	.	.	.	.
=37-	=37-	=37-	=37-	=37-	=37-	=37-	=37-
!LO:TX:t=P:problem:kreska pseudotaktowa	!	!	!	!	!	!	!
*	*	*	*	*lig	*	*	*
1C/	-son	2.c\	.	1e\	.	2r	.
.	.	.	.	.	.	1cc\	Chri-
.	.	4B-\	.	.	.	.	.
!LO:TX:t=P:problem:kreska pseudotaktowa	!	!	!	!	!	!	!
00r	.	4A/	-lei-	1f\	.	.	.
.	.	4G/	.	.	.	.	.
.	.	2F/	.	.	.	2a\	-ste
*	*	*	*	*Xlig	*	*	*
=38-	=38-	=38-	=38-	=38-	=38-	=38-	=38-
.	.	2G/	.	2d\	.	2b-\	.
.	.	2c\	.	2e\	.	2.cc\	e-
!	!	!LO:TX:t=P:problem:kreska pseudotaktowa	!	!	!	!	!
.	.	1F/	-son	2.f\	e-	.	.
.	.	.	.	.	.	4b-\	.
.	.	.	.	.	.	4a\	.
!	!	!	!	!	!	!LO:TX:t=P:problem:kreska pseudotaktowa	!
.	.	.	.	4e\	.	4g\	.
=39-	=39-	=39-	=39-	=39-	=39-	=39-	=39-
.	.	0r	.	4d\	.	2a\	-lei-
.	.	.	.	4c\	.	.	.
!	!	!	!	!LO:TX:t=P:problem:kreska pseudotaktowa	!	!	!
.	.	.	.	2d\	.	2.b-\	.
*	*ij	*	*	*	*	*	*
1F\	Chri-	.	.	2c/	-lei-	.	.
.	.	.	.	.	.	4a\	.
.	.	.	.	2A/	.	1a\	.
=40-	=40-	=40-	=40-	=40-	=40-	=40-	=40-
!	!	!LO:TX:t=P:problem:kreska pseudotaktowa	!	!	!	!	!
2D\	-ste	1r	.	1B-/	.	.	.
2E\	.	.	.	.	.	2g\	.
!	!	!	!	!	!	!LO:TX:t=P:problem:kreska pseudotaktowa	!
2.F\	e-	2r	.	2A,</	-son	0a\,<	-son
*	*	*	*ij	*	*ij	*	*
.	.	1A\	Chri-	1f\	Chri-	.	.
!LO:TX:t=P:problem:kreska pseudotaktowa	!	!	!	!	!	!	!
4E\	.	.	.	.	.	.	.
=41-	=41-	=41-	=41-	=41-	=41-	=41-	=41-
4D/	.	.	.	.	.	.	.
4C/	.	.	.	.	.	.	.
2D/	.	2F/	-ste	2d\	-ste	.	.
!	!	!	!	!	!	!LO:LB:g=original	!
2C/	.	2G/	.	2e\	.	0r	.
!	!	!	!	!LO:TX:t=P:problem:kreska pseudotaktowa	!	!	!
2AA/	.	1A\	e-	1f\	e-	.	.
=42-	=42-	=42-	=42-	=42-	=42-	=42-	=42-
1BB-/	-lei-	.	.	.	.	.	.
.	.	2G/	.	4e\	.	.	.
.	.	.	.	4d\	.	.	.
!LO:TX:t=P:problem:kreska pseudotaktowa	!	!	!	!	!	!	!
1AA/	-son	1A\	.	4c\	.	2r	.
.	.	.	.	4d\	.	.	.
*	*Xij	*	*	*	*	*	*ij
.	.	.	.	4e\	.	2cc\	Chri-
.	.	.	.	4c\	.	.	.
=43-	=43-	=43-	=43-	=43-	=43-	=43-	=43-
1rA	.	2F/	lei-	1d\	-lei-	2a\	-ste
!	!	!	!	!	!	!LO:TX:t=P:problem:kreska pseudotaktowa	!
.	.	2G/	.	.	.	2b-\	.
!	!	!LO:TX:t=P:problem:kreska pseudotaktowa	!	!	!	!	!
2r	.	1A\	-son	0c\	-son	2.cc\	e-
*	*	*	*Xij	*	*Xij	*	*
1F\	Chri-	.	.	.	.	.	.
.	.	.	.	.	.	4b-\	.
=44-	=44-	=44-	=44-	=44-	=44-	=44-	=44-
!	!	!	!	!LO:TX:t=P:problem:kreska pseudotaktowa	!	!	!
.	.	1rf	.	.	.	4a\	.
.	.	.	.	.	.	4g\	.
!	!	!	!	!	!	!LO:TX:t=P:problem:kreska pseudotaktowa	!
2F\	-ste	.	.	.	.	2a\	.
!	!	!	!	!LO:TX:t=P:problem:kreska pseudotaktowa	!	!	!
2E\	.	1c\	Chri-	1rg	.	2g/	.
!LO:TX:t=P:problem:kreska pseudotaktowa	!	!	!	!	!	!	!
2C/	.	.	.	.	.	2e/	.
=45-	=45-	=45-	=45-	=45-	=45-	=45-	=45-
1D\	.	2A\	-ste	1F/	Chri-	1f/	-lei-
.	.	2B-\	.	.	.	.	.
!	!	!	!	!	!	!LO:TX:t=P:problem:kreska pseudotaktowa	!
0AA/	.	2.c\	.	2.A/	-ste	0e/	-son
*	*	*	*	*	*	*	*Xij
!	!	!LO:TX:t=P:problem:kreska pseudotaktowa	!	!	!	!	!
.	.	4B-\	.	4B-/	.	.	.
=46-	=46-	=46-	=46-	=46-	=46-	=46-	=46-
.	.	4A/	e-	2.c\	.	.	.
.	.	4G/	.	.	.	.	.
.	.	2A/	.	.	.	.	.
.	.	.	.	4d\	.	.	.
1C/	e-	2G/	.	4e\	.	2r	.
.	.	.	.	4f\	.	.	.
!	!	!	!	!LO:TX:t=P:problem:kreska pseudotaktowa:między nutą a kropką, ligatura	!	!	!
.	.	2E/	.	2.g\	.	2cc\	Chri-
=47-	=47-	=47-	=47-	=47-	=47-	=47-	=47-
!	!	!LO:TX:t=P:problem:kreska pseudotaktowa	!	!	!	!	!
1D\	.	1F/	.	.	.	2a\	-ste
.	.	.	.	4f\	.	.	.
.	.	.	.	2.f\	.	2b-\	.
1C/	.	1G/	.	.	.	2.cc\	.
.	.	.	.	4e\	.	.	.
!	!	!	!	!LO:TX:t=P:problem:kreska pseudotaktowa:między nutą a kropką, ligatura	!	!	!
.	.	.	.	2.e\	.	.	.
!	!	!	!	!	!	!LO:TX:t=P:problem:kreska pseudotaktowa	!
.	.	.	.	.	.	4b-\	.
=48-	=48-	=48-	=48-	=48-	=48-	=48-	=48-
!LO:TX:t=P:problem:kreska pseudotaktowa	!	!	!	!	!	!	!
1F\	lei-	2A/	.	.	.	4a\	.
.	.	.	.	4d\	.	4g\	.
.	.	2F/	.	2.d\	e-	2a\	e-
2E\	.	2G/	-lei-	.	.	2g/	-lei-
.	.	.	.	4c/	.	.	.
2C/	.	2A/	.	1c\	.	2e/	.
=49-	=49-	=49-	=49-	=49-	=49-	=49-	=49-
0D\	.	0F/	.	.	.	0f/	.
.	.	.	.	4Bn/	.	.	.
.	.	.	.	4A/	.	.	.
.	.	.	.	1Bn/	-lei-	.	.
=50-	=50-	=50-	=50-	=50-	=50-	=50-	=50-
0C/;	-son.	0G/;	-son	0c\;	-son.	0e/;	-son.
=51||	=51||	=51||	=51||	=51||	=51||	=51||	=51||
*M2/1	*	*M2/1	*	*M2/1	*	*M2/1	*
*met(c|)	*	*met(c|)	*	*met(c|)	*	*met(c|)	*
!LO:TX:t=P:problem:przy kluczu BB- B-	!	!	!	!	!	!	!
!LO:LB:g=original	!	!LO:TX:t=P:problem:oznaczenie menzuralne C|	!	!LO:TX:t=P:problem:oznaczenie menzuralne C|	!	!	!
2.AA/	Ky-	0A\	Ky-	00r	.	00r	.
4BB-/	-ri-	.	.	.	.	.	.
2C/	-e	.	.	.	.	.	.
2.D/	.	.	.	.	.	.	.
=52-	=52-	=52-	=52-	=52-	=52-	=52-	=52-
.	.	1A\	-ri-	.	.	.	.
4C/	.	.	.	.	.	.	.
!LO:TX:t=P:problem:kreska pseudotaktowa	!	!	!	!	!	!	!
2AA/	.	.	.	.	.	.	.
2BB-/	.	1G/	-e	.	.	.	.
2C/	.	.	.	.	.	.	.
=53-	=53-	=53-	=53-	=53-	=53-	=53-	=53-
!	!	!	!	!LO:TX:t=P:problem:kreska pseudotaktowa	!	!LO:TX:t=P:problem:kreska pseudotaktowa	!
2D\	.	1F/	e-	0r	.	0r	.
1F\	.	.	.	.	.	.	.
.	.	1G/	-lei-	.	.	.	.
!LO:TX:t=P:problem:kreska pseudotaktowa	!	!	!	!	!	!	!
2E\	.	.	.	.	.	.	.
=54-	=54-	=54-	=54-	=54-	=54-	=54-	=54-
!	!	!LO:TX:t=P:problem:kreska pseudotaktowa	!	!	!	!	!
2.F\	e-	0F/	-son	2.A/	Ky-	0a\	Ky-
4G\	.	.	.	4B-/	-ri-	.	.
2A\	.	.	.	2c\	-e	.	.
2.D\	-lei-	.	.	2.d\	.	.	.
=55-	=55-	=55-	=55-	=55-	=55-	=55-	=55-
.	.	00r	.	.	.	1a\	-ri-
4E\	.	.	.	4c/	.	.	.
!LO:TX:t=P:problem:kreska pseudotaktowa	!	!	!	!	!	!	!
2F\	.	.	.	2A/	.	.	.
2G\	.	.	.	2B-/	.	1g\	-e
!	!	!	!	!LO:TX:t=P:problem:kreska pseudotaktowa	!	!	!
!	!	!	!	!LO:SIC:v:t=custos d	!	!	!
2E\	.	.	.	2c/	.	.	.
=56-	=56-	=56-	=56-	=56-	=56-	=56-	=56-
!	!	!	!	!LO:LB:g=original	!	!LO:TX:t=P:problem:kreska pseudotaktowa	!
1D\	.	.	.	2d\	.	1f/	.
.	.	.	.	1f\	e-	.	.
!LO:TX:t=P:problem:kreska pseudotaktowa	!	!	!	!	!	!	!
1C/,<	-son	.	.	.	.	1g\	e-
!	!	!	!	!LO:TX:t=P:problem:kreska pseudotaktowa	!	!	!
.	.	.	.	2e\	.	.	.
=57-	=57-	=57-	=57-	=57-	=57-	=57-	=57-
*	*ij	*	*ij	*	*	*	*
2.F\	Ky-	0A\	Ky-	2f\	-lei-	1.f/	-lei-
.	.	.	.	2c\	.	.	.
4E\	-ri-	.	.	.	.	.	.
2D/	-e	.	.	1d\	.	.	.
4C/	.	.	.	.	.	4e/	.
4BB-/	.	.	.	.	.	4d/	.
=58-	=58-	=58-	=58-	=58-	=58-	=58-	=58-
!	!	!	!	!LO:TX:t=P:problem:kreska pseudotaktowa	!	!	!
2.AA/	e-	1A\	-ri-	0c\	son	4e/	.
.	.	.	.	.	.	4c/	.
.	.	.	.	.	.	1f/	.
!LO:TX:t=P:problem:kreska pseudotaktowa	!	!	!	!	!	!	!
4BB-/	.	.	.	.	.	.	.
1C/	.	1G/	-e	.	.	.	.
.	.	.	.	.	.	2e/	.
=59-	=59-	=59-	=59-	=59-	=59-	=59-	=59-
!	!	!	!	!	!	!LO:TX:t=P:problem:kreska pseudotaktowa	!
1D\	lei-	1F/	e-	2r	.	1f/	-son
.	.	.	.	2f\	Ky-	.	.
!LO:TX:t=P:problem:kreska pseudotaktowa	!	!	!	!	!	!	!
1C/	-son	0G/	-lei-	2e\	-ri-	2r	.
!	!	!	!	!LO:TX:t=P:problem:kreska pseudotaktowa	!	!	!
.	.	.	.	2c\	.	2cc\	Ky-
=60-	=60-	=60-	=60-	=60-	=60-	=60-	=60-
1rA	.	.	.	1d\	-e	2b-\	-ri-
.	.	.	.	.	.	2g\	.
!	!	!LO:TX:t=P:problem:kreska pseudotaktowa	!	!	!	!	!
2r	.	1F/	-son	1f\	.	1a\	-e
*	*Xij	*	*Xij	*	*	*	*
!LO:TX:t=P:problem:kreska pseudotaktowa	!	!	!	!	!	!	!
2F\	Ky-	.	.	.	.	.	.
=61-	=61-	=61-	=61-	=61-	=61-	=61-	=61-
!	!	!LO:SIC:v:t=custos B-	!	!	!	!LO:TX:t=P:problem:kreska pseudotaktowa	!
!LO:LB:g=original	!	!LO:TX:t=P:problem:kreska pseudotaktowa	!	!	!	!	!
2A\	-ri-	00r	.	2e\	.	1cc\	.
!	!	!	!	!LO:TX:t=P:problem:kreska pseudotaktowa	!	!	!
2A\	-e	.	.	2c\	.	.	.
1G\	e-	.	.	2.d\	.	2b-\	.
.	.	.	.	.	.	2g\	e-
.	.	.	.	4c/	.	.	.
=62-	=62-	=62-	=62-	=62-	=62-	=62-	=62-
2.F\	lei-	.	.	4A/	.	2.a\	.
.	.	.	.	4B-/	.	.	.
.	.	.	.	2.c/	.	.	.
8E\L	.	.	.	.	.	4g/	.
8D\J	.	.	.	.	.	.	.
!LO:TX:t=P:problem:kreska pseudotaktowa	!	!	!	!	!	!	!
1C/	-son	.	.	.	.	4e/	.
.	.	.	.	4B-/	e-	4f/	.
.	.	.	.	4G/	.	2.g\	-lei-
!	!	!	!	!LO:TX:t=P:problem:kreska pseudotaktowa	!	!	!
.	.	.	.	4A/	.	.	.
=63-	=63-	=63-	=63-	=63-	=63-	=63-	=63-
!	!	!LO:LB:g=original	!	!	!	!	!
0r	.	2r	.	4B-/	.	.	.
.	.	.	.	4c/	.	4f/	.
!	!	!	!	!	!	!LO:TX:t=P:problem:kreska pseudotaktowa	!
.	.	2B-\	Ky-	2.d\	-lei-	2d/	.
.	.	2A\	-ri-	.	.	2e/	.
.	.	.	.	4c/	.	.	.
.	.	2F/	.	1c\	.	2f/	.
=64-	=64-	=64-	=64-	=64-	=64-	=64-	=64-
1r	.	1G/	-e	.	.	1d/	.
.	.	.	.	2Bn/	.	.	.
!	!	!LO:TX:t=P:problem:kreska pseudotaktowa	!	!LO:TX:t=P:problem:kreska pseudotaktowa	!	!	!
2r	.	1A\	e-	1c\	-son	0c/	-son.
!LO:TX:t=P:problem:kreska pseudotaktowa	!	!	!	!	!	!	!
*	*ij	*	*	*	*	*	*
2F\	Ky-	.	.	.	.	.	.
=65-	=65-	=65-	=65-	=65-	=65-	=65-	=65-
!	!	!	!	!LO:TX:t=P:problem:kreska pseudotaktowa	!	!LO:TX:t=P:problem:kreska pseudotaktowa	!
2E\	-ri-	2G/	.	1rg	.	.	.
2C/	-e	2c\	.	.	.	.	.
!	!	!	!	!	!	!LO:LB:g=original	!
2.D/	e-	2B-\	.	1f\	Ky-	0rdd	.
.	.	2.A\	.	.	.	.	.
4C/	.	.	.	.	.	.	.
=66-	=66-	=66-	=66-	=66-	=66-	=66-	=66-
4AA/	.	.	.	2e\	-ri-	.	.
4BB-/	.	4G/	.	.	.	.	.
!LO:TX:t=P:problem:kreska pseudotaktowa	!	!	!	!LO:TX:t=P:problem:kreska pseudotaktowa	!	!	!
2C/	.	2E/	-lei-	2c\	-e	.	.
!	!	!	!	!LO:LB:g=original	!	!LO:TX:t=P:problem:kreska pseudotaktowa	!
2BB-/	.	2F/	.	1d\	e-	1rdd	.
2GG/	.	2.G/	.	.	.	.	.
=67-	=67-	=67-	=67-	=67-	=67-	=67-	=67-
*lig	*	*	*	*	*	*	*
1AA/	-lei-	.	.	2c\	.	1cc\	Ky-
.	.	4F/	.	.	.	.	.
!	!	!	!	!LO:TX:t=P:problem:kreska pseudotaktowa	!	!	!
.	.	1F/	.	2A/	.	.	.
1GG/	.	.	.	1B-y/	-lei-	2b-\	-ri-
!	!	!LO:TX:t=P:problem:kreska pseudotaktowa	!	!	!	!	!
.	.	2E/	.	.	.	2g\	.
*Xlig	*	*	*	*	*	*	*
=68-	=68-	=68-	=68-	=68-	=68-	=68-	=68-
1D\	.	2F,</	-son	2A,</	-son	1a\	-e
*	*	*	*	*	*ij	*	*
.	.	2f\	Ky-	2F/	Ky-	.	.
!LO:TX:t=P:problem:kreska pseudotaktowa	!	!	!	!	!	!LO:TX:t=P:problem:kreska pseudotaktowa	!
1C/,<	-son	2e\	-ri-	2.G/	-ri-	1cc\	.
*	*Xij	*	*	*	*	*	*
.	.	2c\	.	.	.	.	.
.	.	.	.	4A/	.	.	.
=69-	=69-	=69-	=69-	=69-	=69-	=69-	=69-
!	!	!	!	!LO:TX:t=P:problem:kreska pseudotaktowa	!	!	!
1G\	Ky-	2.d\	-e	1B-/	-e	2b-\	e-
.	.	.	.	.	.	2g\	.
.	.	4c\	.	.	.	.	.
2.F\	-ri-	4A\	.	0c\	e-	2.a\	.
.	.	4B-\	.	.	.	.	.
!	!	!LO:TX:t=P:problem:kreska pseudotaktowa:między nutą a kropką, ligatura	!	!	!	!	!
.	.	2.c\	.	.	.	.	.
4E\	.	.	.	.	.	4g/	.
=70-	=70-	=70-	=70-	=70-	=70-	=70-	=70-
!	!	!LO:N:xstem:cue	!	!	!	!	!
2C/	-e	.	.	.	.	4e/	.
.	.	4B-\	.	.	.	4f/	.
2E-X\	e-	2G/	.	.	.	2.g/	.
2D\	-lei-	2A/	e-	1d\	.	.	.
.	.	.	.	.	.	4f/	-lei-
2BB-/	.	2B-/	-lei-	.	.	1f/	.
=71-	=71-	=71-	=71-	=71-	=71-	=71-	=71-
!LO:TX:t=P:problem:kreska pseudotaktowa	!	!LO:TX:t=P:problem:kreska pseudotaktowa	!	!	!	!	!
*	*	*	*	*lig	*	*	*
1C/	-son	1G/	.	1c\	.	.	.
.	.	.	.	.	.	2e/	.
!LO:TX:t=P:problem:kreska pseudotaktowa	!	!	!	!	!	!LO:TX:t=P:problem:kreska pseudotaktowa	!
1rA	.	1d\	.	1B-/	.	0f/	-son
*	*	*	*	*Xlig	*	*	*
=72-	=72-	=72-	=72-	=72-	=72-	=72-	=72-
1F\	Ky-	2c\	.	2A/	.	.	.
.	.	2.d\	.	2F/	.	.	.
!	!	!	!	!LO:TX:t=P:problem:kreska pseudotaktowa	!	!	!
2Eny\	-ri-	.	.	1G/	-lei-	0r	.
.	.	4c\	.	.	.	.	.
2C/	.	1c\	.	.	.	.	.
=73-	=73-	=73-	=73-	=73-	=73-	=73-	=73-
1D\	-e	.	.	2F,</	-son	.	.
*	*	*	*	*	*Xij	*	*
.	.	2B-\	.	2f\	Ky-	.	.
!LO:TX:t=P:problem:kreska pseudotaktowa	!	!LO:TX:t=P:problem:kreska pseudotaktowa	!	!	!	!	!
1C/	.	1c\	-son	2e\	-ri-	2r	.
.	.	.	.	2c\	.	2cc\	Ky-
=74-	=74-	=74-	=74-	=74-	=74-	=74-	=74-
!	!	!LO:LB:g=original	!	!LO:TX:t=P:problem:kreska pseudotaktowa	!	!	!
!LO:LB:g=original	!	!LO:TX:t=P:problem:kreska pseudotaktowa	!	!	!	!	!
1G\	e-	1rf	.	1d\	-e	2b-\	-ri-
!	!	!	!	!	!	!LO:TX:t=P:problem:kreska pseudotaktowa	!
.	.	.	.	.	.	2g\	.
2F\	.	1f\	Ky-	2A/	e-	1a\	-e
2D\	.	.	.	2d\	.	.	.
=75-	=75-	=75-	=75-	=75-	=75-	=75-	=75-
!LO:TX:t=P:problem:kreska pseudotaktowa	!	!	!	!	!	!	!
1A\	.	2e\	-ri-	2c\	.	1cc\	e-
!	!	!	!	!LO:TX:t=P:problem:kreska pseudotaktowa	!	!	!
.	.	2c\	.	2A/	.	.	.
1G\	-lei-	2.d\	-e	1B-/	.	2b-\	.
.	.	.	.	.	.	2g\	.
.	.	4c\	.	.	.	.	.
=76-	=76-	=76-	=76-	=76-	=76-	=76-	=76-
1F\	.	4A\	.	0c\	.	2.a\	.
.	.	4B-\	.	.	.	.	.
!	!	!LO:TX:t=P:problem:kreska pseudotaktowa:między nutą a kropką, ligatura	!	!	!	!	!
.	.	2.c\	.	.	.	.	.
.	.	.	.	.	.	4g/	.
!	!	!LO:N:xstem:cue	!	!	!	!	!
2C/	.	.	.	.	.	4e/	-lei-
.	.	4B-\	.	.	.	4f/	.
2E-X\	.	2G/	e-	.	.	2.g/	.
=77-	=77-	=77-	=77-	=77-	=77-	=77-	=77-
*	*	*	*	*lig	*	*	*
2D/	.	2A\	-lei-	1d\	-lei-	.	.
.	.	.	.	.	.	4f/	.
!LO:TX:t=P:problem:kreska pseudotaktowa	!	!	!	!	!	!	!
2BB-/	.	2B-\	.	.	.	1f/	.
1C/	.	1G/	.	1c\	.	.	.
.	.	.	.	.	.	2e/	.
*	*	*	*	*Xlig	*	*	*
=78-	=78-	=78-	=78-	=78-	=78-	=78-	=78-
!	!	!	!	!LO:TX:b:i:t=Et interra Vertat(ur)	!	!	!
0F\;	-son.	0F/;	-son.	0A/;	-son.	0f/;	-son.
==	==	==	==	==	==	==	==
*-	*-	*-	*-	*-	*-	*-	*-
!!!RDF**kern: > = above
!!!RDF**kern: < = below
!!!system-decoration: [(s1,s2,s3,s4)]
!!!ENC: Andrzej Kubiczek
!!!END: 2021-03-02
!!!EED: Andrzej Borzym
!!!EST: 2021-03-19
